BMW Web App/client/src/assets/calendar_icon_colored.svg

<svg version="1.1" xmlns="http://www.w3.org/2000/svg" xmlns:xlink="http://www.w3.org/1999/xlink" width="14" height="14" viewBox="0,0,256,256"><g fill="none" fill-rule="nonzero" stroke="#354f52" stroke-width="1.5" stroke-linecap="round" stroke-linejoin="round" stroke-miterlimit="10" stroke-dasharray="" stroke-dashoffset="0" font-family="none" font-weight="none" font-size="none" text-anchor="none" style="mix-blend-mode: normal"><g transform="scale(18.28571,18.28571)"><path d="M1,5.66667h12M3.66667,1v1.33333M10.3333,1v1.33333M3.13333,13h7.73337c0.7467,0 1.1201,0 1.4053,-0.1453c0.2509,-0.1278 0.4549,-0.3318 0.5827,-0.5827c0.1453,-0.2852 0.1453,-0.6586 0.1453,-1.4053v-6.40003c0,-0.74674 0,-1.12011 -0.1453,-1.40532c-0.1278,-0.25089 -0.3318,-0.45486 -0.5827,-0.58269c-0.2852,-0.14533 -0.6586,-0.14533 -1.4053,-0.14533h-7.73337c-0.74673,0 -1.1201,0 -1.40532,0.14533c-0.25088,0.12783 -0.45486,0.3318 -0.58268,0.58269c-0.14533,0.28521 -0.14533,0.65858 -0.14533,1.40532v6.40003c0,0.7467 0,1.1201 0.14533,1.4053c0.12782,0.2509 0.3318,0.4549 0.58268,0.5827c0.28522,0.1453 0.65858,0.1453 1.40532,0.1453z"></path></g></g></svg>

<svg width="14" height="14" viewBox="0 0 14 14" fill="none" xmlns="http://www.w3.org/2000/svg">
<path d="M1 5.66667H13M3.66667 1V2.33333M10.3333 1V2.33333M3.13333 13H10.8667C11.6134 13 11.9868 13 12.272 12.8547C12.5229 12.7269 12.7269 12.5229 12.8547 12.272C13 11.9868 13 11.6134 13 10.8667V4.46667C13 3.71993 13 3.34656 12.8547 3.06135C12.7269 2.81046 12.5229 2.60649 12.272 2.47866C11.9868 2.33333 11.6134 2.33333 10.8667 2.33333H3.13333C2.3866 2.33333 2.01323 2.33333 1.72801 2.47866C1.47713 2.60649 1.27315 2.81046 1.14533 3.06135C1 3.34656 1 3.71993 1 4.46667V10.8667C1 11.6134 1 11.9868 1.14533 12.272C1.27315 12.5229 1.47713 12.7269 1.72801 12.8547C2.01323 13 2.38659 13 3.13333 13Z" stroke="#2563EB" stroke-width="1.5" stroke-linecap="round" stroke-linejoin="round"/>
</svg>
